Mono Glyph Icons/misc/misc-unfilled/file.svg

<svg height="48" viewBox="0 -960 960 960" width="48" xmlns="http://www.w3.org/2000/svg"><path d="m229-55c-26.033 0-48.207-9.157-66.52-27.47-18.32-18.32-27.48-40.497-27.48-66.53v-662c0-26.307 9.16-48.717 27.48-67.23 18.313-18.513 40.487-27.77 66.52-27.77h323c13.04 0 25.467 2.667 37.28 8s22.053 12.333 30.72 21l177 177c8.667 8.667 15.667 18.907 21 30.72s8 24.24 8 37.28v483c0 26.033-9.257 48.21-27.77 66.53-18.513 18.313-40.923 27.47-67.23 27.47zm313-617v-139h-313v662h502v-476h-142c-13.167 0-24.29-4.543-33.37-13.63-9.087-9.08-13.63-20.203-13.63-33.37zm-313-139v186-186 662z"/></svg>

<?xml version="1.0" encoding="utf-8"?>
<svg xmlns="http://www.w3.org/2000/svg" height="48" viewBox="0 -960 960 960" width="48">
  <path d="M 229 -55 C 202.967 -55 180.793 -64.157 162.48 -82.47 C 144.16 -100.79 135 -122.967 135 -149 L 135 -811 C 135 -837.307 144.16 -859.717 162.48 -878.23 C 180.793 -896.743 202.967 -906 229 -906 L 552 -906 C 565.04 -906 577.467 -903.333 589.28 -898 C 601.093 -892.667 611.333 -885.667 620 -877 L 797 -700 C 805.667 -691.333 812.667 -681.093 818 -669.28 C 823.333 -657.467 826 -645.04 826 -632 L 826 -149 C 826 -122.967 816.743 -100.79 798.23 -82.47 C 779.717 -64.157 757.307 -55 731 -55 L 229 -55 Z M 542 -672 L 542 -811 L 229 -811 L 229 -149 L 731 -149 L 731 -625 L 589 -625 C 575.833 -625 564.71 -629.543 555.63 -638.63 C 546.543 -647.71 542 -658.833 542 -672 Z M 229 -811 L 229 -625 L 229 -811 L 229 -149 L 229 -811 Z"/>
</svg>
